X:1
T:The Old Chisholm Trail
M:4/4
L:1/8
K:G
 z4 z2 d2| GG G2 B3 D| GG GG B3 B| dd dd dd dd| e2 dd B2 GG| A2 B2 AG ED|\
 G2 GB d2 Bc| d2 e2 dc AF| G6 z2|
